X:151
T:La Marche au Camp
R:jig
C:Jean-Paul Loyer
N:The actual key is 
D:Ojnab: Le Messager
Z:transcribed by Dave Marshall
M:6/8
K:D
|: d3 ede | f3 def | g3 gfg | a3 abc' | 
d'3 a3 | b3 f3 | gfe fed |1 Adc d2A :|2 Adc d2c |
|: B3 Bcd | Adc def | a3 agf | e3 edc |
B3 Bcd | Adc def | agf gfe | Adc d3 :|
